src/pos-icons/ceiling-light.svg

<svg height="24" viewBox="0 0 24 24" width="24" xmlns="http://www.w3.org/2000/svg"><path d="m8 9h3v-5h2v5h3l4 8h-16zm6 9a2 2 0 0 1 -2 2 2 2 0 0 1 -2-2z"/></svg>

<?xml version="1.0" encoding="UTF-8"?><!DOCTYPE svg PUBLIC "-//W3C//DTD SVG 1.1//EN" "http://www.w3.org/Graphics/SVG/1.1/DTD/svg11.dtd"><svg xmlns="http://www.w3.org/2000/svg" xmlns:xlink="http://www.w3.org/1999/xlink" version="1.1" id="mdi-ceiling-light" width="24" height="24" viewBox="0 0 24 24"><path d="M8,9H11V4H13V9H16L20,17H4L8,9M14,18A2,2 0 0,1 12,20A2,2 0 0,1 10,18H14Z" /></svg>
